X: 377
T:The Gatehouse Maid
R:Reel
S:Paddy Canny and Peter O'Loughlin, Clare (fiddles)
N:As played (P O'L much the louder)
Z:Bernie Stocks
M:4/4
K:G
A2(3Bcd edBA | G3A GED2 | A2(3Bcd eB~B2 | egdB {d}BAGB | A2(3Bcd edBA |
GBAF GEDG | A2Bd eB~B2 | egdB {d}BAA2 || a3a {b}agef | g2dg Bgdg | a3a
{b}agab |
gedB {d}BAA2 | ~a3b agef | ~g3e ~g3e | dega bgag | egdB {d}BAA2 ||
<end>
<start>
